X:1
T: Miss Janet McKerrell's Strathspey
M: C|
B: James Campbell's Collection 1798
Z: source from Highland Music Trust, chords by Gary Whaley
L: 1/8
K:F
A[|:"F"F<F A>c f>c d>c|f>c BA {A}"C"G2 G>A |"F"F<F A>c f>g {fg}a>g |"Bb"{g}f>d "C"{d}c>A "F" F>F F :|]
c[|:"F"f>g {fg}a>f {ga}"Bb"b>a "C"ga|"F" f>g {fg}a>f "C"g<e c2 |"F"f>g {fg}a>f {ga}"Bb"b>a "C"g>b |"F"a>f "C"e>g "F" f>f f>A|
|"F"f>g {fg}a>f {ga}"Bb"b>a "C"ga|"F"(f/e)/f/g/ (f/g/)a/f/ "C"g>e "F"ca|"Bb" b>g "C"a>f "Bb"g>d "F"f>c | "Bb" d/c/B/A/ "C"G>B "F" (A<F) F :|]
 